symbols/web/flood/materialsymbolsoutlined/flood_wght200_40px.svg

<svg xmlns="http://www.w3.org/2000/svg" height="40" width="40"><path d="M4.167 34.125v-1.417q1.333-.333 2.041-.958.709-.625 2.625-.625 2.084 0 2.959.833.875.834 2.625.834t2.625-.834q.875-.833 2.958-.833t3 .833q.917.834 2.625.834 1.75 0 2.625-.896T31.208 31q1.917 0 2.604.688.688.687 2.021 1.02v1.417q-1.375-.167-2.271-.937-.895-.771-2.354-.771-1.666 0-2.604.895-.937.896-2.979.896-2.083 0-3.021-.833-.937-.833-2.604-.833-1.708 0-2.604.833-.896.833-2.979.833-2.084 0-2.979-.833-.896-.833-2.605-.833-1.5 0-2.375.708t-2.291.875Zm10.25-5.917q-2.042 0-2.979-.833-.938-.833-2.605-.833-1.458 0-2.375.708-.916.708-2.291.875v-1.417q1.333-.291 2.041-.937.709-.646 2.625-.646.792 0 1.5.208.709.209 1.834.834L9.583 16.5l-2.625 3.25-1.125-.875L16.792 5.333l16.291 6.209-.5 1.291-3.916-1.458 3.666 13.75q.917.125 1.75.75.834.625 1.75.833v1.417q-1.375-.208-2.25-.958t-2.375-.75q-1.708 0-2.604.895-.896.896-2.979.896t-3.021-.833q-.937-.833-2.604-.833-1.708 0-2.604.833-.896.833-2.979.833Zm0-1.416q1.458 0 2.291-.646.834-.646 2.167-.938l-1.75-6.458 6.208-1.625 2.542 9.625q1.5-.042 2.333-.854.834-.813 2.625-.896l-3.791-14.25L17.25 7l-6.542 8.125 3.084 11.625q.208.042.354.042h.271Zm6.375-9.875Z"/></svg>

<svg xmlns="http://www.w3.org/2000/svg" height="40" width="40"><path d="M4.167 34.125V32.708Q5.5 32.375 6.208 31.75Q6.917 31.125 8.833 31.125Q10.917 31.125 11.792 31.958Q12.667 32.792 14.417 32.792Q16.167 32.792 17.042 31.958Q17.917 31.125 20 31.125Q22.083 31.125 23 31.958Q23.917 32.792 25.625 32.792Q27.375 32.792 28.25 31.896Q29.125 31 31.208 31Q33.125 31 33.812 31.688Q34.5 32.375 35.833 32.708V34.125Q34.458 33.958 33.562 33.188Q32.667 32.417 31.208 32.417Q29.542 32.417 28.604 33.312Q27.667 34.208 25.625 34.208Q23.542 34.208 22.604 33.375Q21.667 32.542 20 32.542Q18.292 32.542 17.396 33.375Q16.5 34.208 14.417 34.208Q12.333 34.208 11.438 33.375Q10.542 32.542 8.833 32.542Q7.333 32.542 6.458 33.25Q5.583 33.958 4.167 34.125ZM14.417 28.208Q12.375 28.208 11.438 27.375Q10.5 26.542 8.833 26.542Q7.375 26.542 6.458 27.25Q5.542 27.958 4.167 28.125V26.708Q5.5 26.417 6.208 25.771Q6.917 25.125 8.833 25.125Q9.625 25.125 10.333 25.333Q11.042 25.542 12.167 26.167L9.583 16.5L6.958 19.75L5.833 18.875L16.792 5.333L33.083 11.542L32.583 12.833L28.667 11.375L32.333 25.125Q33.25 25.25 34.083 25.875Q34.917 26.5 35.833 26.708V28.125Q34.458 27.917 33.583 27.167Q32.708 26.417 31.208 26.417Q29.5 26.417 28.604 27.312Q27.708 28.208 25.625 28.208Q23.542 28.208 22.604 27.375Q21.667 26.542 20 26.542Q18.292 26.542 17.396 27.375Q16.5 28.208 14.417 28.208ZM14.417 26.792Q15.875 26.792 16.708 26.146Q17.542 25.5 18.875 25.208L17.125 18.75L23.333 17.125L25.875 26.75Q27.375 26.708 28.208 25.896Q29.042 25.083 30.833 25L27.042 10.75L17.25 7L10.708 15.125L13.792 26.75Q14 26.792 14.146 26.792Q14.292 26.792 14.417 26.792ZM20.792 16.917Q20.792 16.917 20.792 16.917Q20.792 16.917 20.792 16.917Q20.792 16.917 20.792 16.917Q20.792 16.917 20.792 16.917Q20.792 16.917 20.792 16.917Q20.792 16.917 20.792 16.917Q20.792 16.917 20.792 16.917Q20.792 16.917 20.792 16.917Q20.792 16.917 20.792 16.917Q20.792 16.917 20.792 16.917Z"/></svg>
